packages/icons/src/SVG/presentation.svg

<svg width="12" height="12" viewBox="0 0 12 12" fill="none" xmlns="http://www.w3.org/2000/svg">
<path d="M9 5H3V6H9V5Z" fill="#4C505B"/>
<path d="M3 7H9V8H3V7Z" fill="#4C505B"/>
<path fill-rule="evenodd" clip-rule="evenodd" d="M0 0V10H4.49264L3.25 11.2426L3.95711 11.9497L5.84988 10.057L7.74266 11.9497L8.44977 11.2426L7.20713 10H12V0H0ZM11 1H1V3H11V1ZM1 9V4H11V9H1Z" fill="#4C505B"/>
</svg>

<!-- Generated by IcoMoon.io -->
<svg version="1.1" xmlns="http://www.w3.org/2000/svg" width="12" height="12" viewBox="0 0 12 12">
<title>presentation</title>
<path d="M9 5h-6v1h6v-1z"></path>
<path d="M3 7h6v1h-6v-1z"></path>
<path d="M0 0v10h4.493l-1.243 1.243 0.707 0.707 1.893-1.893 1.893 1.893 0.707-0.707-1.243-1.243h4.793v-10h-12zM11 1v2h-10v-2h10zM1 9v-5h10v5h-10z"></path>
</svg>
